web/workspace/public/assets/network/dadi-network_host-black.svg

<svg viewBox="0 0 150 150" xmlns="http://www.w3.org/2000/svg"><g fill="none" stroke="#04111c" stroke-miterlimit="10" stroke-width="5"><path d="m37.7 37.8 9.7 9.7m55 55 9.7 9.6"/><path d="m35.3 35.3h79.4v79.4h-79.4z" transform="matrix(.70709444 -.70711912 .70711912 .70709444 -31.066724 75.002144)"/><path d="m58.3 94.8v-40m33.7 40v-40m-4.1-21.2-12.7 12.7-23-23m10.4 93.5 12.6-12.7 22.4 22.5m-74.3-74.4 22.8 22.6h56.9l23.5 22.9"/></g></svg>

<svg xmlns="http://www.w3.org/2000/svg" viewBox="0 0 150 150"><style>.st0{fill:#04111d}.st1{fill:#fff}.st2,.st3,.st4{fill:none;stroke:#fff;stroke-width:4;stroke-miterlimit:10}.st3,.st4{stroke:#04111c;stroke-width:5}.st4{stroke:#0ecc5f;stroke-width:4}</style><g id="icons"><path class="st3" d="M37.7 37.8l9.7 9.7M102.4 102.5l9.7 9.6"/><path transform="rotate(-45.001 75 75.001)" class="st3" d="M35.3 35.3h79.4v79.4H35.3z"/><path class="st3" d="M58.3 94.8v-40M92 94.8v-40M87.9 33.6L75.2 46.3l-23-23M62.6 116.8l12.6-12.7 22.4 22.5M23.3 52.2l22.8 22.6H103l23.5 22.9"/></g></svg>
